X:16
T:The Hunters House (Revery's)
M:C|
R:Reel
S:phelan-2/41
L:1/8
K:G
     BcdB cAFA      | G2   BG   DGBG | BcdB cAFA | GBAG FGEF  |
     DGGG AFFF      | BGAF GABc      | defg agfd | cAFA      [1 G4 :|2 G3 ||
A |: B2   gB   aBgB | B2   gf   edcB | Aaaa baag | fgaf gfed  |
     B2   gB   aBgB | B2   gf   edcB | cBAg fgaf | gdBd cAFA :| G4  |]

